X: 234
T: Başın Öne Eğilmesin
C: Kerem Güney
O: Turkey
F: http://compmusic.upf.edu/node/140
N: hicaz--popsarkisi--sofyan--basin_one--kerem_guney
N: makam= hicaz
N: form= popsarkisi
N: usul= sofyan = 4/4
M: 4/4
L: 1/16
K: C _7/8B ^f ^c 
Q: 1/4=78
%%MIDI tuningsystem comma53
A2ed d2ed ^3/4c2dc B2cB  | A2ed d2ed ^3/4c2dc B2cB  | 
w:  ARANAĞME  |   | 
A2ed d2ed ^3/4c2dc B2cB  | A2ed d2ed ^3/4c2dc B2cB  | 
w:  ARANAĞME  |   | 
z2e=f fee2 edd2 d^3/4cc2  | z2de edd2 d^3/4cc2 cBB2  | 
w:   |   | 
z2^3/4cd dcc2 cBB2 BAA2  | z2B^3/4c cABG ABcd eg=f2  | 
w:   |   | 
z2e=f fee2 edd2 d^3/4cc2  | z2de edd2 d^3/4cc2 cBB2  | 
w:   |   | 
z2^3/4cd dcc2 cBB2 BAA2  | z2B^3/4c cABG A4 cded  | 
w:   |   | 
ede14  | z2^3/4cd ee3 ee3 e^3/4fg2  | \
w:  SERBEST  |  Ba şın_ ö ne  e ğil me sin    | 
z2gg g=f3 fe3 edd2  | 
w:  Al dır ma  gö nül_ al dır *  ma    | 
^3/4cded ede8-e2  | z2^3/4cd ee3 ee3 e^3/4fg2  | \
w:  SAZ  |  Ba şın_ ö ne  e ğil me sin    | 
z2gg g=f3 fe3 edd2  | 
w:  Al dır ma  gö nül_ al dır *  ma    | 
^3/4cded ede8-e2  | z2e=f fe3 ed3 d^3/4c3  | \
w:  SAZ  |  Ağ la dı ğın  du yul ma sın    | 
z2de ed3 d^3/4c3 cBB2  | 
w:  Al dır ma  gö nül_ al dır *  ma    | 
z2^3/4cd dc3 c_3/4B3 .BAA2  | z2B^3/4c AcBG A4 cded  | 
w:  Al dır ma  gö nül_ al dır *  ma    |  Gö nül_ al *  dır *  ma   SAZ  | 
ede14  | z2e=f fe3 ed3 d^3/4c3  | z2de ed3 d^3/4c3 cBB2  | 
w:   |  Ağ la dı ğın  du yul ma sın    |  Al dır ma  gö nül_ al dır *  ma    | 
z2^3/4cd dc3 c_3/4B3 .BAA2  | z2B^3/4c AcBG A4 cded  | 
w:  Al dır ma  gö nül_ al dır *  ma    |  Gö nül_ al *  dır *  ma   SAZ  | 
ede14  | A2ed d2ed ^3/4c2dc B2cB  | A2ed d2ed ^3/4c2dc B2cB  | 
w:   |  RİTM  |   | 
z2^3/4cd ee3 ee3 e^3/4fg2  | z2gg g=f3 fe3 ed3  | \
w:  Dı şar da  de li  dal ga lar    |  Ge lip  du var la rı  ya lar    | 
z2^3/4cd ee3 ee3 e^3/4fg2  | 
w:  Dı şar da  de li  dal ga lar    | 
z2gg g=f3 fe3 ed3  | z2e=f fe3 ed3 d^3/4c3  | \
w:  Ge lip  du var la rı  ya lar    |  Se ni  bu  ses ler_ o ya lar    | 
z2de ed3 d^3/4c3 cBB2  | 
w:  Al dır ma  gö nül_ al dır *  ma    | 
z2^3/4cd dc3 c_3/4B3 BAA2  | z2B^3/4c AcBA A2cd cdeg  | 
w:  Al dır ma  gö nül_ al dır *  ma    |  Gö nül_ al *  dır *  ma   SAZ  | 
z2e=f fe3 ed3 d^3/4c3  | z2de ed3 d^3/4c3 cBB2  | \
w:  Se ni  bu  ses ler_ o ya lar    |  Al dır ma  gö nül_ al dır *  ma    | 
z2^3/4cd dc3 c_3/4B3 BAA2  | 
w:  Al dır ma  gö nül_ al dır *  ma    | 
z2B^3/4c AcBA A8  | A2ed d2ed ^3/4c2dc B2cB  | \
w:  gö nül_ al *  dır *  ma    |  RİTM  | 
A2ed d2ed ^3/4c2dc B2cB  | 
w:   | 
z2^3/4cd ee3 ee3 e^3/4fg2  | z2gg g=f3 fe3 ed3  | \
w:  Dı şar da  de li  dal ga lar    |  Ge lip  du var la rı  ya lar    | 
z2^3/4cd ee3 ee3 e^3/4fg2  | 
w:  Dı şar da  de li  dal ga lar    | 
z2gg g=f3 fe3 ed3  | z2e=f fe3 ed3 d^3/4c3  | \
w:  Ge lip  du var la rı  ya lar    |  Se ni  bu  ses ler_ o ya lar    | 
z2de ed3 d^3/4c3 cBB2  | 
w:  Al dır ma  gö nül_ al dır *  ma    | 
z2^3/4cd dc3 c_3/4B3 BAA2  | z2B^3/4c AcBA A2cd cdeg  | 
w:  Al dır ma  gö nül_ al dır *  ma    |  Gö nül_ al *  dır *  ma   SAZ  | 
z2e=f fe3 ed3 d^3/4c3  | z2de ed3 d^3/4c3 cBB2  | \
w:  Se ni  bu  ses ler_ o ya lar    |  Al dır ma  gö nül_ al dır *  ma    | 
z2^3/4cd dc3 c_3/4B3 BAA2  | 
w:  Al dır ma  gö nül_ al dır *  ma    | 
z2B^3/4c AcBA A8  | |


